X:25
T:Basse danse - Danse du Roy
R:
C:Tielman Susato
H:
N:23
B:
O:Flandres
A:
Z:<eric.forgeot@caramail.com> -- http://anamnese.fr.st
M:C|
L:1/4
Q:1/4=110
K:F
(c/B/)c/d/ c B | AGFE | D2 DD | D2 C/D/E/F/ | G2 GG |
(G/A/)B/A/ G/F/E/D/ | E2 E E | E2E2 |
